src/16/actions/im-icq.svg

<svg xmlns="http://www.w3.org/2000/svg" viewBox="0 0 16 16">
  <defs id="defs3051">
    <style type="text/css" id="current-color-scheme">
      .ColorScheme-Text {
        color:#5d656b;
      }
      </style>
  </defs>
 <path style="fill:currentColor;fill-opacity:1;stroke:none" 
     d="M 8 2 A 1.4999996 2.25 0 0 0 6.5 4.25 A 1.4999996 2.25 0 0 0 6.5039062 4.3886719 A 2.25 1.4999996 45 0 0 6.4082031 4.2890625 A 2.25 1.4999996 45 0 0 3.7578125 3.7578125 A 2.25 1.4999996 45 0 0 4.2871094 6.4101562 A 2.25 1.4999996 45 0 0 4.3867188 6.5039062 A 2.25 1.4999996 0 0 0 4.25 6.5 A 2.25 1.4999996 0 0 0 2 8 A 2.25 1.4999996 0 0 0 4.25 9.5 A 2.25 1.4999996 0 0 0 4.3886719 9.4960938 A 1.4999996 2.25 45 0 0 4.2871094 9.5917969 A 1.4999996 2.25 45 0 0 3.7578125 12.242188 A 1.4999996 2.25 45 0 0 6.4082031 11.712891 A 1.4999996 2.25 45 0 0 6.5039062 11.613281 A 1.4999996 2.25 0 0 0 6.5 11.75 A 1.4999996 2.25 0 0 0 8 14 A 1.4999996 2.25 0 0 0 9.5 11.75 A 1.4999996 2.25 0 0 0 9.4960938 11.611328 A 2.25 1.4999996 45 0 0 9.5917969 11.712891 A 2.25 1.4999996 45 0 0 12.242188 12.242188 A 2.25 1.4999996 45 0 0 11.712891 9.5917969 A 2.25 1.4999996 45 0 0 11.613281 9.4960938 A 2.25 1.4999996 0 0 0 11.75 9.5 A 2.25 1.4999996 0 0 0 14 8 A 2.25 1.4999996 0 0 0 11.75 6.5 A 2.25 1.4999996 0 0 0 11.611328 6.5039062 A 1.4999996 2.25 45 0 0 11.712891 6.4101562 A 1.4999996 2.25 45 0 0 12.242188 3.7578125 A 1.4999996 2.25 45 0 0 9.5917969 4.2890625 A 1.4999996 2.25 45 0 0 9.4960938 4.3886719 A 1.4999996 2.25 0 0 0 9.5 4.25 A 1.4999996 2.25 0 0 0 8 2 z M 8.7460938 6.1972656 A 1.4999996 2.25 45 0 0 9.0605469 6.9394531 A 1.4999996 2.25 45 0 0 9.8007812 7.2539062 A 2.25 1.4999996 0 0 0 9.5 8 A 2.25 1.4999996 0 0 0 9.8027344 8.7460938 A 2.25 1.4999996 45 0 0 9.0605469 9.0605469 A 2.25 1.4999996 45 0 0 8.7460938 9.8007812 A 1.4999996 2.25 0 0 0 8 9.5 A 1.4999996 2.25 0 0 0 7.2539062 9.8007812 A 1.4999996 2.25 45 0 0 6.9394531 9.0605469 A 1.4999996 2.25 45 0 0 6.1992188 8.7460938 A 2.25 1.4999996 0 0 0 6.5 8 A 2.25 1.4999996 0 0 0 6.1992188 7.2539062 A 2.25 1.4999996 45 0 0 6.9394531 6.9394531 A 2.25 1.4999996 45 0 0 7.2539062 6.1992188 A 1.4999996 2.25 0 0 0 8 6.5 A 1.4999996 2.25 0 0 0 8.7460938 6.1972656 z M 8 7.25 C 7.5845 7.25 7.25 7.5845 7.25 8 C 7.25 8.4155 7.5845 8.75 8 8.75 C 8.4155 8.75 8.75 8.4155 8.75 8 C 8.75 7.5845 8.4155 7.25 8 7.25 z "
     class="ColorScheme-Text"
     />
</svg>

<svg xmlns="http://www.w3.org/2000/svg" viewBox="0 0 16 16"><path d="M8 2a1.5 2.25 0 0 0-1.5 2.25 1.5 2.25 0 0 0 .004.139 2.25 1.5 45 0 0-.096-.1 2.25 1.5 45 0 0-2.65-.531 2.25 1.5 45 0 0 .53 2.652 2.25 1.5 45 0 0 .099.094A2.25 1.5 0 0 0 4.25 6.5 2.25 1.5 0 0 0 2 8a2.25 1.5 0 0 0 2.25 1.5 2.25 1.5 0 0 0 .139-.004 1.5 2.25 45 0 0-.102.096 1.5 2.25 45 0 0-.53 2.65 1.5 2.25 45 0 0 2.651-.53 1.5 2.25 45 0 0 .096-.099 1.5 2.25 0 0 0-.004.137A1.5 2.25 0 0 0 8 14a1.5 2.25 0 0 0 1.5-2.25 1.5 2.25 0 0 0-.004-.139 2.25 1.5 45 0 0 .096.102 2.25 1.5 45 0 0 2.65.53 2.25 1.5 45 0 0-.53-2.651 2.25 1.5 45 0 0-.099-.096 2.25 1.5 0 0 0 .137.004A2.25 1.5 0 0 0 14 8a2.25 1.5 0 0 0-2.25-1.5 2.25 1.5 0 0 0-.139.004 1.5 2.25 45 0 0 .102-.094 1.5 2.25 45 0 0 .53-2.652 1.5 2.25 45 0 0-2.651.531 1.5 2.25 45 0 0-.096.1A1.5 2.25 0 0 0 9.5 4.25 1.5 2.25 0 0 0 8 2zm.746 4.197a1.5 2.25 45 0 0 .315.742 1.5 2.25 45 0 0 .74.315A2.25 1.5 0 0 0 9.5 8a2.25 1.5 0 0 0 .303.746 2.25 1.5 45 0 0-.742.315 2.25 1.5 45 0 0-.315.74A1.5 2.25 0 0 0 8 9.5a1.5 2.25 0 0 0-.746.3 1.5 2.25 45 0 0-.315-.74 1.5 2.25 45 0 0-.74-.314A2.25 1.5 0 0 0 6.5 8a2.25 1.5 0 0 0-.3-.746 2.25 1.5 45 0 0 .74-.315 2.25 1.5 45 0 0 .314-.74A1.5 2.25 0 0 0 8 6.5a1.5 2.25 0 0 0 .746-.303zM8 7.25a.748.748 0 0 0-.75.75c0 .415.335.75.75.75s.75-.335.75-.75A.748.748 0 0 0 8 7.25z" fill="currentColor" color="#5d656b"/></svg>
